rospo-icon-theme-classic-common/64x64/apps/aegisub.svg

<svg height="64" width="64" xmlns="http://www.w3.org/2000/svg"><path d="m17.679548 6.8842715a6.5938326 6.8438139 2.5927977 0 0 -2.555106 2.5869768l-11.2352356 20.1554997a6.5938326 6.8438139 2.5927977 0 0 -.01104 6.843978l11.1706316 20.117587a6.5938326 6.8438139 2.5927977 0 0 5.705331 3.411677l22.405432-.0387a6.5938326 6.8438139 2.5927977 0 0 5.71641-3.431629l11.234943-20.156023a6.5938326 6.8438139 2.5927977 0 0  .0108-6.843976l-11.170389-20.1175817a6.5938326 6.8438139 2.5927977 0 0 -5.70587-3.4120478l-22.405144.039217a6.5938326 6.8438139 2.5927977 0 0 -3.161803.8449528z" opacity=".2"/><path d="m17.679548 5.8842633a6.5938326 6.8438139 2.5927977 0 0 -2.555106 2.5869769l-11.2352356 20.1554998a6.5938326 6.8438139 2.5927977 0 0 -.01104 6.843979l11.1706316 20.117587a6.5938326 6.8438139 2.5927977 0 0 5.705331 3.411677l22.405432-.0387a6.5938326 6.8438139 2.5927977 0 0 5.71641-3.431629l11.234943-20.156023a6.5938326 6.8438139 2.5927977 0 0  .0108-6.843977l-11.170389-20.117582a6.5938326 6.8438139 2.5927977 0 0 -5.70587-3.4120477l-22.405144.039217a6.5938326 6.8438139 2.5927977 0 0 -3.161803.8449528z" fill="#ff4141"/><path d="m18.684073 5.42744a6.5938326 6.8438139 2.5927977 0 0 -1.006047.4579563 6.5938326 6.8438139 2.5927977 0 0 -2.554223 2.5867589l-11.2337318 20.1556248a6.5938326 6.8438139 2.5927977 0 0 -.01078 6.841589l11.1689948 20.119543a6.5938326 6.8438139 2.5927977 0 0 5.704525 3.411081l22.405428-.03886a6.5938326 6.8438139 2.5927977 0 0 4.51507-1.867906z" opacity=".2"/><path d="m45.74752 5.5190314-28.937983 51.5741976s-.185172.294178-.226562.358038a6.5938326 6.8438139 2.5927977 0 0 4.16983 1.548726l22.405428-.03886a6.5938326 6.8438139 2.5927977 0 0 5.71801-3.430507l11.233731-20.155631a6.5938326 6.8438139 2.5927977 0 0  .0108-6.844365l-11.169009-20.1195358a6.5938326 6.8438139 2.5927977 0 0 -3.204245-2.8920628z" opacity=".2"/><path d="m3.0742294 33.000007a6.5938326 6.8438139 2.5927977 0 0  .8046872 2.46875l11.1679664 20.121089a6.5938326 6.8438139 2.5927977 0 0 5.707029 3.410155l22.406245-.03906a6.5938326 6.8438139 2.5927977 0 0 5.714842-3.429687l11.234373-20.156247a6.5938326 6.8438139 2.5927977 0 0  .80078-2.375z" opacity=".2"/><path d="m32 20.000007c-12.375 0-22 10.111107-22 13.236974 0 4.096353 9.625 12.763019 22 12.763019s22-10.111109 22-12.763019c0-3.125867-9.625-13.236974-22-13.236974z" opacity=".2"/><path d="m32 19.000011c-12.375 0-22 10.111107-22 13.236974 0 4.096353 9.625 12.763019 22 12.763019s22-10.111109 22-12.763019c0-3.125867-9.625-13.236974-22-13.236974z" fill="#fff"/><circle cx="32" cy="32" fill="#1b87e6" r="11"/><circle cx="32" cy="32" fill="#3f3f3f" r="6"/><path d="m43.246094 5-22.40625.0390625a6.5938326 6.8438139 2.5927977 0 0 -3.16211.8457031 6.5938326 6.8438139 2.5927977 0 0 -2.552734 2.5859375l-11.2363281 20.1562499a6.5938326 6.8438139 2.5927977 0 0 -.8671875 3.982422 6.5938326 6.8438139 2.5927977 0 1  .8671875-2.982422l11.2363281-20.1562499a6.5938326 6.8438139 2.5927977 0 1 2.552734-2.5859375 6.5938326 6.8438139 2.5927977 0 1 3.16211-.8457031l22.40625-.0390625a6.5938326 6.8438139 2.5927977 0 1 5.705078 3.4121094l11.169922 20.1171876a6.5938326 6.8438139 2.5927977 0 1  .857422 2.861328 6.5938326 6.8438139 2.5927977 0 0 -.857422-3.861328l-11.169922-20.1171876a6.5938326 6.8438139 2.5927977 0 0 -5.705078-3.4121094z" fill="#fff" opacity=".2"/></svg>

<svg xmlns="http://www.w3.org/2000/svg" width="64" height="64" version="1">
 <path style="opacity:0.2" d="M 17.679548,6.8842715 A 6.5938326,6.8438139 2.5927977 0 0 15.124442,9.4712483 L 3.8892064,29.626748 a 6.5938326,6.8438139 2.5927977 0 0 -0.01104,6.843978 L 15.048798,56.588313 a 6.5938326,6.8438139 2.5927977 0 0 5.705331,3.411677 l 22.405432,-0.0387 a 6.5938326,6.8438139 2.5927977 0 0 5.71641,-3.431629 L 60.110914,36.373638 a 6.5938326,6.8438139 2.5927977 0 0 0.0108,-6.843976 L 48.951325,9.4120803 a 6.5938326,6.8438139 2.5927977 0 0 -5.70587,-3.4120478 l -22.405144,0.039217 a 6.5938326,6.8438139 2.5927977 0 0 -3.161803,0.8449528 z"/>
 <path style="fill:#ff4141" d="M 17.679548,5.8842633 A 6.5938326,6.8438139 2.5927977 0 0 15.124442,8.4712402 L 3.8892064,28.62674 a 6.5938326,6.8438139 2.5927977 0 0 -0.01104,6.843979 L 15.048798,55.588306 a 6.5938326,6.8438139 2.5927977 0 0 5.705331,3.411677 l 22.405432,-0.0387 a 6.5938326,6.8438139 2.5927977 0 0 5.71641,-3.431629 L 60.110914,35.373631 a 6.5938326,6.8438139 2.5927977 0 0 0.0108,-6.843977 L 48.951325,8.412072 a 6.5938326,6.8438139 2.5927977 0 0 -5.70587,-3.4120477 l -22.405144,0.039217 a 6.5938326,6.8438139 2.5927977 0 0 -3.161803,0.8449528 z"/>
 <path style="opacity:0.2" d="M 18.684073,5.42744 A 6.5938326,6.8438139 2.5927977 0 0 17.678026,5.8853963 6.5938326,6.8438139 2.5927977 0 0 15.123803,8.4721552 L 3.8900712,28.62778 a 6.5938326,6.8438139 2.5927977 0 0 -0.01078,6.841589 L 15.048286,55.588912 a 6.5938326,6.8438139 2.5927977 0 0 5.704525,3.411081 l 22.405428,-0.03886 a 6.5938326,6.8438139 2.5927977 0 0 4.51507,-1.867906 L 18.684073,5.42744 Z"/>
 <path style="opacity:0.2" d="M 45.74752,5.5190314 16.809537,57.093229 c 0,0 -0.185172,0.294178 -0.226562,0.358038 a 6.5938326,6.8438139 2.5927977 0 0 4.16983,1.548726 l 22.405428,-0.03886 a 6.5938326,6.8438139 2.5927977 0 0 5.71801,-3.430507 L 60.109974,35.374995 a 6.5938326,6.8438139 2.5927977 0 0 0.0108,-6.844365 L 48.951765,8.4110942 A 6.5938326,6.8438139 2.5927977 0 0 45.74752,5.5190314 Z"/>
 <path style="opacity:0.2" d="m 3.0742294,33.000007 a 6.5938326,6.8438139 2.5927977 0 0 0.8046872,2.46875 L 15.046883,55.589846 a 6.5938326,6.8438139 2.5927977 0 0 5.707029,3.410155 l 22.406245,-0.03906 a 6.5938326,6.8438139 2.5927977 0 0 5.714842,-3.429687 L 60.109372,35.375007 a 6.5938326,6.8438139 2.5927977 0 0 0.80078,-2.375 l -57.8359226,0 z"/>
 <path style="opacity:0.2" d="m 32,20.000007 c -12.375,0 -22,10.111107 -22,13.236974 C 10,37.333334 19.625,46 32,46 44.375,46 54,35.888891 54,33.236981 54,30.111114 44.375,20.000007 32,20.000007 Z"/>
 <path style="fill:#ffffff" d="m 32,19.000011 c -12.375,0 -22,10.111107 -22,13.236974 0,4.096353 9.625,12.763019 22,12.763019 12.375,0 22,-10.111109 22,-12.763019 0,-3.125867 -9.625,-13.236974 -22,-13.236974 z"/>
 <circle style="fill:#1b87e6" cx="32" cy="32" r="11"/>
 <circle style="fill:#3f3f3f" cx="32" cy="32" r="6"/>
 <path style="fill:#ffffff;opacity:0.2" d="M 43.246094 5 L 20.839844 5.0390625 A 6.5938326 6.8438139 2.5927977 0 0 17.677734 5.8847656 A 6.5938326 6.8438139 2.5927977 0 0 15.125 8.4707031 L 3.8886719 28.626953 A 6.5938326 6.8438139 2.5927977 0 0 3.0214844 32.609375 A 6.5938326 6.8438139 2.5927977 0 1 3.8886719 29.626953 L 15.125 9.4707031 A 6.5938326 6.8438139 2.5927977 0 1 17.677734 6.8847656 A 6.5938326 6.8438139 2.5927977 0 1 20.839844 6.0390625 L 43.246094 6 A 6.5938326 6.8438139 2.5927977 0 1 48.951172 9.4121094 L 60.121094 29.529297 A 6.5938326 6.8438139 2.5927977 0 1 60.978516 32.390625 A 6.5938326 6.8438139 2.5927977 0 0 60.121094 28.529297 L 48.951172 8.4121094 A 6.5938326 6.8438139 2.5927977 0 0 43.246094 5 z"/>
</svg>
